X: 61
T:Dan Powrie's Farewell
% Nottingham Music Database
S:Trad, arr Phil Rowe
M:6/8
K:F
C3 |"F"F3 C3|A3 F3|"F"c3 AFA|f2e d2c|"Gm"B3 D^CD|"Gm"d3 G^FG|
bag fed|"C7"cdc BAG|"F"F3 C3|A3 F3|"F"c3 AFA|
f2e d2c|"Gm"B2B Bcd|G2G GAB|"C7"gbg ece|"F"f3 -f2||
C|"F"FCF AFA|cAc fef|"F"FAc fef|"Gm"b2b d3|"C7"bge cBG|
"C7"BGE C3|"Gm"bag fed|"C7"cdc BAG|"F"FCF AFA|cAc fef|
"F"FAc fef|"Gm"b2b d3|"Gm"B2B Bcd|G2G GAB|"C7"gbg ece|"F"f3 z3||


